styles/5/Numix/64/places/pink-folder-art.svg

<?xml version="1.0" encoding="UTF-8" standalone="no"?>
<!-- Created with Inkscape (http://www.inkscape.org/) -->

<svg
   xmlns:dc="http://purl.org/dc/elements/1.1/"
   xmlns:cc="http://creativecommons.org/ns#"
   xmlns:rdf="http://www.w3.org/1999/02/22-rdf-syntax-ns#"
   xmlns:svg="http://www.w3.org/2000/svg"
   xmlns="http://www.w3.org/2000/svg"
   xmlns:xlink="http://www.w3.org/1999/xlink"
   xmlns:sodipodi="http://sodipodi.sourceforge.net/DTD/sodipodi-0.dtd"
   xmlns:inkscape="http://www.inkscape.org/namespaces/inkscape"
   width="64"
   height="64"
   id="svg2"
   version="1.1"
   inkscape:version="0.91 r"
   sodipodi:docname="pink-folder-art.svg"
   inkscape:export-filename="/media/Data/Main/Visuals/Icons/Numix/Desktop/repos/numix-wiki/Gjorgi/Numix-folders/48/New/folder-144.png"
   inkscape:export-xdpi="270"
   inkscape:export-ydpi="270">
  <defs
     id="defs4">
    <linearGradient
       id="linearGradient3886-9">
      <stop
         style="stop-color:#000000;stop-opacity:1;"
         offset="0"
         id="stop3888-3" />
      <stop
         style="stop-color:#000000;stop-opacity:0.19607843;"
         offset="1"
         id="stop3890-7" />
    </linearGradient>
    <radialGradient
       r="24"
       fy="40.5"
       fx="24"
       cy="40.5"
       cx="24"
       gradientTransform="matrix(1.6666667,0,0,0.2777777,-8,1030.4456)"
       gradientUnits="userSpaceOnUse"
       id="radialGradient3147"
       xlink:href="#linearGradient3886-9"
       inkscape:collect="always" />
  </defs>
  <sodipodi:namedview
     id="base"
     pagecolor="#ffffff"
     bordercolor="#666666"
     borderopacity="1.0"
     inkscape:pageopacity="0.0"
     inkscape:pageshadow="2"
     inkscape:zoom="7.4607353"
     inkscape:cx="30.149889"
     inkscape:cy="28.400949"
     inkscape:document-units="px"
     inkscape:current-layer="layer1"
     showgrid="true"
     inkscape:window-width="1280"
     inkscape:window-height="998"
     inkscape:window-x="0"
     inkscape:window-y="0"
     inkscape:window-maximized="1"
     showguides="true"
     inkscape:guide-bbox="true">
    <inkscape:grid
       type="xygrid"
       id="grid2985"
       empspacing="5"
       visible="true"
       enabled="true"
       snapvisiblegridlinesonly="true" />
  </sodipodi:namedview>
  <metadata
     id="metadata7">
    <rdf:RDF>
      <cc:Work
         rdf:about="">
        <dc:format>image/svg+xml</dc:format>
        <dc:type
           rdf:resource="http://purl.org/dc/dcmitype/StillImage" />
        <dc:title />
      </cc:Work>
    </rdf:RDF>
  </metadata>
  <g
     inkscape:label="Layer 1"
     inkscape:groupmode="layer"
     id="layer1"
     transform="translate(0,-988.3622)">
    <path
       inkscape:connector-curvature="0"
       style="opacity:0.1;fill:url(#radialGradient3147);fill-opacity:1;stroke:none"
       d="m 32,1035.0288 c -13.102065,0 -24.70396,1.0442 -32,2.6668 l 0,8 c 7.29604,1.6224 18.897935,2.6666 32,2.6666 13.102066,0 24.70396,-1.0442 32,-2.6666 l 0,-8 c -7.29604,-1.6226 -18.897934,-2.6668 -32,-2.6668 z"
       id="path3868" />
    <rect
       style="fill:#ec407a;fill-opacity:1;stroke:none"
       id="rect2987"
       width="60"
       height="41.999908"
       x="2"
       y="1002.3622"
       rx="6.521739"
       ry="6.5624819" />
    <path
       style="opacity:0.2;fill:#ffffff;fill-opacity:1;stroke:none"
       d="M 8.521739,1001.6956 C 4.9086956,1001.6956 2,1004.6688 2,1008.3622 l 0,2.6666 c 0,-3.6932 2.9086956,-6.6666 6.521739,-6.6666 l 46.956521,0 c 3.613044,0 6.52174,2.9734 6.52174,6.6666 l 0,-2.6666 c 0,-3.6934 -2.908696,-6.6666 -6.52174,-6.6666 l -46.956521,0 z"
       id="rect3797"
       inkscape:connector-curvature="0" />
    <path
       style="fill:#f06292;fill-opacity:1;stroke:none"
       d="m 8.521739,1012.3622 10.434783,0 c 14.347826,-1.3334 11.73913,-16 20.869564,-16 l 15.652174,0 c 3.613044,0 6.52174,2.9734 6.52174,6.6666 l 0,34.6668 c 0,3.6932 -2.908696,6.6666 -6.52174,6.6666 l -46.956521,0 C 4.9086956,1044.3622 2,1041.3888 2,1037.6956 l 0,-18.6668 c 0,-4 2.6086956,-6.6666 6.521739,-6.6666 z"
       id="rect3776"
       inkscape:connector-curvature="0"
       sodipodi:nodetypes="cccsssssscc" />
    <path
       style="opacity:0.15;fill:#000000;fill-opacity:1;stroke:none"
       d="m 2,1035.0288 0,2.6668 c 0,3.6932 2.9086956,6.6666 6.521739,6.6666 l 46.956521,0 c 3.613044,0 6.52174,-2.9734 6.52174,-6.6666 l 0,-2.6668 c 0,3.6934 -2.908696,7.3334 -6.52174,7.3334 l -46.956521,0 C 4.9086956,1042.3622 2,1038.7222 2,1035.0288 z"
       id="path3786"
       inkscape:connector-curvature="0"
       sodipodi:nodetypes="csssscssc" />
    <path
       id="path5610"
       d="m 15.875,1021.3622 c -4.493097,0.112 -7.875,3.4779 -7.875,6.9063 0,3.4287 2.25,3.4062 3.375,3.4062 1.125,0 2.25,-0.036 2.25,2.25 0,2.2854 1.125,3.4375 3.375,3.4375 7.875,0 9,-5.7144 9,-8 0,-3.4284 -3.375,-8 -10.125,-8 z m -1.875,2 c 0.552285,0 1,0.4477 1,1 0,0.5523 -0.447715,1 -1,1 -0.552285,0 -1,-0.4477 -1,-1 0,-0.5523 0.447715,-1 1,-1 z m 5,0 c 0.552285,0 1,0.4477 1,1 0,0.5523 -0.447715,1 -1,1 -0.552285,0 -1,-0.4477 -1,-1 0,-0.5523 0.447715,-1 1,-1 z m 4,3 c 0.552285,0 1,0.4477 1,1 0,0.5523 -0.447715,1 -1,1 -0.552285,0 -1,-0.4477 -1,-1 0,-0.5523 0.447715,-1 1,-1 z m -12,1 c 0.552285,0 1,0.4477 1,1 0,0.5523 -0.447715,1 -1,1 -0.552285,0 -1,-0.4477 -1,-1 0,-0.5523 0.447715,-1 1,-1 z m 6.5,5 c 0.828427,0 1.5,0.6716 1.5,1.5 0,0.8284 -0.671573,1.5 -1.5,1.5 -0.828427,0 -1.5,-0.6716 -1.5,-1.5 0,-0.8284 0.671573,-1.5 1.5,-1.5 z"
       style="fill:#000000;fill-opacity:0.09803922;stroke:none"
       inkscape:connector-curvature="0" />
    <path
       style="fill:#fff8e1;fill-opacity:1;stroke:none"
       d="M 15.875 31 C 11.381903 31.112 8 34.47785 8 37.90625 C 8 41.33495 10.25 41.3125 11.375 41.3125 C 12.5 41.3125 13.625 41.2765 13.625 43.5625 C 13.625 45.8479 14.75 47 17 47 C 24.875 47 26 41.2856 26 39 C 26 35.5716 22.625 31 15.875 31 z M 14 33 C 14.552285 33 15 33.447715 15 34 C 15 34.552285 14.552285 35 14 35 C 13.447715 35 13 34.552285 13 34 C 13 33.447715 13.447715 33 14 33 z M 19 33 C 19.552285 33 20 33.447715 20 34 C 20 34.552285 19.552285 35 19 35 C 18.447715 35 18 34.552285 18 34 C 18 33.447715 18.447715 33 19 33 z M 23 36 C 23.552285 36 24 36.447715 24 37 C 24 37.552285 23.552285 38 23 38 C 22.447715 38 22 37.552285 22 37 C 22 36.447715 22.447715 36 23 36 z M 11 37 C 11.552285 37 12 37.447715 12 38 C 12 38.552285 11.552285 39 11 39 C 10.447715 39 10 38.552285 10 38 C 10 37.447715 10.447715 37 11 37 z M 17.5 42 C 18.328427 42 19 42.671573 19 43.5 C 19 44.328427 18.328427 45 17.5 45 C 16.671573 45 16 44.328427 16 43.5 C 16 42.671573 16.671573 42 17.5 42 z "
       transform="translate(0,988.3622)"
       id="path3843" />
  </g>
</svg>

<!-- Created with Inkscape (http://www.inkscape.org/) -->
<svg xmlns="http://www.w3.org/2000/svg" viewBox="0 0 64 64">
 <defs>
  <radialGradient r="24" cy="40.5" cx="24" gradientTransform="matrix(1.6666667,0,0,0.2777777,-8,1030.4456)" gradientUnits="userSpaceOnUse" id="radialGradient3147">
   <stop style="stop-color:#000;stop-opacity:1"/>
   <stop offset="1" style="stop-color:#000;stop-opacity:0.196"/>
  </radialGradient>
 </defs>
 <g transform="translate(0,-988.3622)">
  <path d="m 32 1035.03 c -13.1 0 -24.704 1.044 -32 2.667 l 0 8 c 7.296 1.622 18.898 2.667 32 2.667 13.1 0 24.704 -1.044 32 -2.667 l 0 -8 c -7.296 -1.623 -18.898 -2.667 -32 -2.667 z" style="fill:url(#radialGradient3147);opacity:0.1;fill-opacity:1;stroke:none"/>
  <rect width="60" height="42" x="2" y="1002.36" rx="6.522" ry="6.562" style="fill:#ec407a;fill-opacity:1;stroke:none"/>
  <path d="m 8.522 1001.7 c -3.613 0 -6.522 2.973 -6.522 6.667 l 0 2.667 c 0 -3.693 2.909 -6.667 6.522 -6.667 l 46.957 0 c 3.613 0 6.522 2.973 6.522 6.667 l 0 -2.667 c 0 -3.693 -2.909 -6.667 -6.522 -6.667 l -46.957 0 z" style="fill:#fff;opacity:0.2;fill-opacity:1;stroke:none"/>
  <path d="m 8.522 1012.36 10.435 0 c 14.348 -1.333 11.739 -16 20.87 -16 l 15.652 0 c 3.613 0 6.522 2.973 6.522 6.667 l 0 34.667 c 0 3.693 -2.909 6.667 -6.522 6.667 l -46.957 0 c -3.613 0 -6.522 -2.973 -6.522 -6.667 l 0 -18.667 c 0 -4 2.609 -6.667 6.522 -6.667 z" style="fill:#f06292;fill-opacity:1;stroke:none"/>
  <path d="m 2 1035.03 0 2.667 c 0 3.693 2.909 6.667 6.522 6.667 l 46.957 0 c 3.613 0 6.522 -2.973 6.522 -6.667 l 0 -2.667 c 0 3.693 -2.909 7.333 -6.522 7.333 l -46.957 0 c -3.613 0 -6.522 -3.64 -6.522 -7.333 z" style="fill:#000;opacity:0.15;fill-opacity:1;stroke:none"/>
  <path d="m 15.875 1021.36 c -4.493 0.112 -7.875 3.478 -7.875 6.906 0 3.429 2.25 3.406 3.375 3.406 1.125 0 2.25 -0.036 2.25 2.25 0 2.285 1.125 3.438 3.375 3.438 7.875 0 9 -5.714 9 -8 0 -3.428 -3.375 -8 -10.125 -8 z m -1.875 2 c 0.552 0 1 0.448 1 1 0 0.552 -0.448 1 -1 1 -0.552 0 -1 -0.448 -1 -1 0 -0.552 0.448 -1 1 -1 z m 5 0 c 0.552 0 1 0.448 1 1 0 0.552 -0.448 1 -1 1 -0.552 0 -1 -0.448 -1 -1 0 -0.552 0.448 -1 1 -1 z m 4 3 c 0.552 0 1 0.448 1 1 0 0.552 -0.448 1 -1 1 -0.552 0 -1 -0.448 -1 -1 0 -0.552 0.448 -1 1 -1 z m -12 1 c 0.552 0 1 0.448 1 1 0 0.552 -0.448 1 -1 1 -0.552 0 -1 -0.448 -1 -1 0 -0.552 0.448 -1 1 -1 z m 6.5 5 c 0.828 0 1.5 0.672 1.5 1.5 0 0.828 -0.672 1.5 -1.5 1.5 -0.828 0 -1.5 -0.672 -1.5 -1.5 0 -0.828 0.672 -1.5 1.5 -1.5 z" style="fill:#000;fill-opacity:0.098;stroke:none"/>
  <path d="m 15.875 31 c -4.493 0.112 -7.875 3.478 -7.875 6.906 c 0 3.429 2.25 3.406 3.375 3.406 c 1.125 0 2.25 -0.036 2.25 2.25 c 0 2.285 1.125 3.438 3.375 3.438 c 7.875 0 9 -5.714 9 -8 c 0 -3.428 -3.375 -8 -10.125 -8 z m -1.875 2 c 0.552 0 1 0.448 1 1 c 0 0.552 -0.448 1 -1 1 c -0.552 0 -1 -0.448 -1 -1 c 0 -0.552 0.448 -1 1 -1 z m 5 0 c 0.552 0 1 0.448 1 1 c 0 0.552 -0.448 1 -1 1 c -0.552 0 -1 -0.448 -1 -1 c 0 -0.552 0.448 -1 1 -1 z m 4 3 c 0.552 0 1 0.448 1 1 c 0 0.552 -0.448 1 -1 1 c -0.552 0 -1 -0.448 -1 -1 c 0 -0.552 0.448 -1 1 -1 z m -12 1 c 0.552 0 1 0.448 1 1 c 0 0.552 -0.448 1 -1 1 c -0.552 0 -1 -0.448 -1 -1 c 0 -0.552 0.448 -1 1 -1 z m 6.5 5 c 0.828 0 1.5 0.672 1.5 1.5 c 0 0.828 -0.672 1.5 -1.5 1.5 c -0.828 0 -1.5 -0.672 -1.5 -1.5 c 0 -0.828 0.672 -1.5 1.5 -1.5 z" transform="translate(0,988.3622)" style="fill:#fff8e1;fill-opacity:1;stroke:none"/>
 </g>
</svg>
